!!!OTL: Gute Nacht. / Zum Auseinandergehen.
!!!OTL-incipit: GUTE NACHT UND FROEHLICH LEBEN
!!!COM: Volksweise
!!!ARE: Europa, Mitteleuropa, Deutschland
!!!SCT: F0772
!!!TXL: @@DE
!!!YEM: Copyright 1995, estate of Helmut Schaffrath.
**kern	**text
*ICvox	*
*clefG2	*
*M4/4	*
*met(c)	*
*k[f#]	*
*G:	*
!LO:TX:a:t=Gemüthlich.	!
!LO:TX:a:t=P:only the highest voice encoded:problem	!
{8dd/	1._Gu-
8b/	-te
=1	=1
4.g	Nacht!
8b/	und
4.a	fröh-
8cc/	-lich
=2	=2
4cc/	Le-
4b/	-ben,
4r}	.
{8.b/	eh'
16cc/	wir
=3	=3
4.dd/	aus-
8b/	-ei-
8ee/L	-nan-
8ddJ	.
8cc/L	-der
8bJ	.
=4	=4
(>4b/	gehn!
4a)	.
4r}	.
{8aa	Gu-
8ff#	-te
=5	=5
4.dd/	Nacht!
8ff#/	Gott
4.ee/	wol-
8gg/	-le
=6	=6
4gg/	ge-
4ff#/	-ben,
4r}	.
{8a	daß
8a	wir
=7	=7
4b/	froh
8gg/L	uns
8eeJ	.
4dd/	wie-
4cc#/	-der
=8	=8
4cc#qq	.
2dd/	ſehn.
4r}	.
{8dd/	Wür-
8dd/	-de
=9	=9
8gg/L	Ei-
8ff#J	.
8ee/L	-ner
8ddJ	.
8gg/L	uns
8ff#J	.
8ee/L	ent-
8ddJ	.
=10	=10
(8dd/L	-riſ-
8ccJ)	.
4cc/	-ſen,
4r}	.
{8b/	hät-
8cc/	-te
=11	=11
4.dd/	Gott
8b/	es
8ee/L	ſo
8ddJ	.
8cc/L	be-
8bJ	.
=12	=12
(>4b/	-dacht,
4a)	.
4r}	.
{8.dd/	auch
16ee/	dem,
=13	=13
4.dd/	den
8b/	wir
8dd/L	dann
8ccJ	.
8b/L	ver-
8ccJ	.
=14	=14
8dd/L	-miſ-
8bJ	.
4g	-ſen,
4r}	.
{8g	wer-
8b/	-de
=15	=15
8b/L	ei-
8aJ	.
8cc/L	-ne
8aJ	.
8a/L	gu-
8gJ	.
8gL	-te
8f#J	.
=16	=16
4f#qq	.
2g	Nacht.
4r}	.
==	==
!!!AGN: Geselligkeits -, Tageszeiten - Lied, Abend; Abschied
!!!ONB: ESAC (Essen Associative Code) Database: FINK
!!!AMT: simple quadruple
!!!AIN: vox
!!!EED: Helmut Schaffrath
!!!EEV: 1.0
!!!GTL: Liedertafel- und Gesellschaftslieder
!!Text: Volkslied
!!!source: Musikalischer Hausschatz der Deutschen. Eine Sammlung von über 1000 Liedern und Gesängen mit Singstimmen und Klavierbegleitung. Leipzig, Litterarisches Verlags-Haus.
!!!page: 530
!!!URL-scan: https://www.digitale-sammlungen.de/en/view/bsb11144622?page=480
!!!ENC: Anna Maria Matuszewska
!!!EEV: 2024/08/06
*-	*-
